X: 123
T: No_4_Song_of_a_Mislaid_Scalp.krn
%%abc-version 2.0
%%abcx-abcm2ps-target-version 5.9.1 (29 Sep 2008)
%%abc-creator hum2abc beta
%%abcx-conversion-date 2020/08/10 18:54:56
%%humdrum-veritas 2177332480
%%humdrum-veritas-data 2729774314
%%linebreak <none>
%%barnumbers 0
L: 1/8
M: 3/4
K: F clef=bass
D3/D/ [I:setbarnb 1]| 
D2A,2(3F,D,B, | 
A,2A,2A,3/C/ | 
A,G,F,2D,3/D,/ | 
F,2F,2A,3/C/ | 
A,G,F,2D,3/D,/ | 
F,3F,/G,/G,2 | 
F,2D,>D,D,2 | 
D,6 |]  


